frontend/svgs/tip_check.svg

<svg xmlns="http://www.w3.org/2000/svg" preserveAspectRatio="none" viewBox="-0.5 -0.5 86 101"><path class="svg_main_path" d="M-.14 68.37c.91-3.38 3.18-6.2 6.26-7.77 3.07-1.56 6.66-1.72 9.86-.43 4.65 2.3 8.26 6.34 10.07 11.28 8.31-24.04 20.94-46.29 37.26-65.62 4.63-4.28 11.1-5.83 17.12-4.1 1.54.25 2.84 1.28 3.46 2.74.61 1.46.45 3.13-.44 4.44C61.27 34.4 44.78 64.48 35.11 97.08a19.856 19.856 0 01-18.13 0C12.68 87.34 6.9 78.35-.14 70.42a2.08 2.08 0 010-2.05z" fill="#f7f7c6" stroke="#000" stroke-miterlimit="10" pointer-events="all"/></svg>

<svg xmlns="http://www.w3.org/2000/svg" xmlns:xlink="http://www.w3.org/1999/xlink" version="1.1" preserveAspectRatio="none" viewBox="-0.5 -0.5 86 101"><defs/><g><path class="svg_main_path" d="M -0.14 68.37 C 0.77 64.99 3.04 62.17 6.12 60.6 C 9.19 59.04 12.78 58.88 15.98 60.17 C 20.63 62.47 24.24 66.51 26.05 71.45 C 34.36 47.41 46.99 25.16 63.31 5.83 C 67.94 1.55 74.41 0 80.43 1.73 C 81.97 1.98 83.27 3.01 83.89 4.47 C 84.5 5.93 84.34 7.6 83.45 8.91 C 61.27 34.4 44.78 64.48 35.11 97.08 C 29.41 100 22.68 100 16.98 97.08 C 12.68 87.34 6.9 78.35 -0.14 70.42 C -0.5 69.79 -0.5 69.01 -0.14 68.37 Z" fill="#f7f7c6" stroke="#000000" stroke-miterlimit="10" pointer-events="all"/></g></svg>
